src/symbolic/status/changes-allow-symbolic.svg

<svg xmlns="http://www.w3.org/2000/svg" width="16" height="16"><path d="M8 0C5.784 0 4 1.784 4 4v1h2V4c0-1.108.892-2 2-2s2 .892 2 2v4H3c-.554 0-1 .446-1 1v6c0 .554.446 1 1 1h10c.554 0 1-.446 1-1V9c0-.554-.446-1-1-1h-1V4c0-2.216-1.784-4-4-4z" fill="#444"/></svg>

<svg xmlns="http://www.w3.org/2000/svg" width="16" height="16" version="1.1">
 <path style="fill:#444444" d="M 8,0 C 5.784,0 4,1.784 4,4 V 5 H 6 V 4 C 6,2.892 6.892,2 8,2 9.108,2 10,2.892 10,4 V 8 H 3 C 2.446,8 2,8.446 2,9 V 15 C 2,15.554 2.446,16 3,16 H 13 C 13.554,16 14,15.554 14,15 V 9 C 14,8.446 13.554,8 13,8 H 12 V 4 C 12,1.784 10.216,0 8,0 Z"/>
</svg>
